Catalina-dark/actions/22/view-object-histogram-linear.svg

<svg viewBox="0 0 22 22" xmlns="http://www.w3.org/2000/svg">
<defs>
<style id="current-color-scheme" type="text/css">.ColorScheme-Text {
        color:#dedede;
      }</style>
</defs>
<path class="ColorScheme-Text" d="m4 3v14h-1v1h1v1h1v-1h14v-1h-1v-1h-1-1v-1h-1-1v-1h-1v1h-1v-1h-1v-7h-1v-4h-1v2h-1v3h-1v2h-1v3h-1v-10h-1z" fill="currentColor"/>
</svg>

<svg xmlns="http://www.w3.org/2000/svg" viewBox="0 0 22 22">
  <defs id="defs3051">
    <style type="text/css" id="current-color-scheme">
      .ColorScheme-Text {
        color:#f2f2f2;
      }
      </style>
  </defs>
 <path 
    style="fill:currentColor;fill-opacity:1;stroke:none" 
    d="M 4 3 L 4 17 L 3 17 L 3 18 L 4 18 L 4 19 L 5 19 L 5 18 L 19 18 L 19 17 L 18 17 L 18 16 L 17 16 L 16 16 L 16 15 L 15 15 L 14 15 L 14 14 L 13 14 L 13 15 L 12 15 L 12 14 L 11 14 L 11 7 L 10 7 L 10 3 L 9 3 L 9 5 L 8 5 L 8 8 L 7 8 L 7 10 L 6 10 L 6 13 L 5 13 L 5 3 L 4 3 z "
	class="ColorScheme-Text"
    />  
</svg>
